rospo-icon-theme-classic-common/48x48/status/view-private.svg

<svg height="48" width="48" xmlns="http://www.w3.org/2000/svg"><path d="m24 4c-11.08 0-20 8.92-20 20s8.92 20 20 20 20-8.92 20-20-8.92-20-20-20z" fill="#fecd38"/><rect height="12" opacity=".1" rx="2" width="16" x="5" y="13"/><rect height="12" opacity=".1" rx="2" width="16" x="27" y="13"/><path d="m24 4c-11.08 0-20 8.92-20 20 0 .168-.004.333 0 .5.2644-10.846 9.088-19.5 20-19.5s19.736 8.654 20 19.5c.004-.167 0-.332 0-.5 0-11.08-8.92-20-20-20z" fill="#fff" opacity=".2"/><path d="m4.0117 24.5c-.0041.167-.0117.332-.0117.5 0 11.08 8.92 20 20 20s20-8.92 20-20c0-.16787-.0076-.33314-.01172-.5-.264 10.846-9.076 19.5-19.988 19.5s-19.724-8.654-19.988-19.5z" opacity=".2"/><path d="m20 16s2-1 4-1 4 1 4 1v2s-2-1-4-1-4 1-4 1z" opacity=".1"/><rect fill="#3f3f3f" height="12" rx="2" width="16" x="5" y="12"/><rect fill="#3f3f3f" height="12" rx="2" width="16" x="27" y="12"/><rect height="4" opacity=".1" rx="1" width="3" x="3" y="15"/><rect fill="#212121" height="4" rx="1" width="3" x="3" y="14"/><rect height="4" opacity=".1" rx="1" width="3" x="42" y="15"/><rect fill="#212121" height="4" rx="1" width="3" x="42" y="14"/><path d="m20 15s2-1 4-1 4 1 4 1v2s-2-1-4-1-4 1-4 1z" fill="#212121"/><rect fill="#3f3f3f" height="2" rx="1" width="16" x="16" y="32"/></svg>

<svg xmlns="http://www.w3.org/2000/svg" width="48" height="48" version="1">
 <path style="fill:#fecd38" d="M 24,4 C 12.92,4 4,12.92 4,24 4,35.08 12.92,44 24,44 35.08,44 44,35.08 44,24 44,12.92 35.08,4 24,4 Z"/>
 <rect style="opacity:0.1" width="16" height="12" x="5" y="13" rx="2" ry="2"/>
 <rect style="opacity:0.1" width="16" height="12" x="27" y="13" rx="2" ry="2"/>
 <path style="opacity:0.2;fill:#ffffff" d="M 24,4 C 12.92,4 4,12.92 4,24 4,24.168 3.996,24.333 4,24.5 4.2644,13.654 13.088,5 24,5 34.912,5 43.736,13.654 44,24.5 44.004,24.333 44,24.168 44,24 44,12.92 35.08,4 24,4 Z"/>
 <path style="opacity:0.2" d="M 4.0117,24.5 C 4.0076,24.667 4,24.832 4,25 c 0,11.08 8.92,20 20,20 11.08,0 20,-8.92 20,-20 0,-0.16787 -0.0076,-0.33314 -0.01172,-0.5 -0.264,10.846 -9.076,19.5 -19.988,19.5 -10.912,0 -19.724,-8.654 -19.988,-19.5 z"/>
 <path style="opacity:0.1" d="m 20,16 c 0,0 2,-1 4,-1 2,0 4,1 4,1 l 0,2 c 0,0 -2,-1 -4,-1 -2,0 -4,1 -4,1 z"/>
 <rect style="fill:#3f3f3f" width="16" height="12" x="5" y="12" rx="2" ry="2"/>
 <rect style="fill:#3f3f3f" width="16" height="12" x="27" y="12" rx="2" ry="2"/>
 <rect style="opacity:0.1" width="3" height="4" x="3" y="15" rx="1" ry="1"/>
 <rect style="fill:#212121" width="3" height="4" x="3" y="14" rx="1" ry="1"/>
 <rect style="opacity:0.1" width="3" height="4" x="42" y="15" rx="1" ry="1"/>
 <rect style="fill:#212121" width="3" height="4" x="42" y="14" rx="1" ry="1"/>
 <path style="fill:#212121" d="m 20,15 c 0,0 2,-1 4,-1 2,0 4,1 4,1 l 0,2 c 0,0 -2,-1 -4,-1 -2,0 -4,1 -4,1 z"/>
 <rect style="fill:#3f3f3f" width="16" height="2" x="16" y="32" rx="1" ry="1"/>
</svg>
